flaticon/hand-gestures/drag-23.svg

<svg xmlns="http://www.w3.org/2000/svg" width="32" height="32" viewBox="0 0 24 24">
    <path d="M22.996094 1.601562C22.996094 1.441406 22.925781 1.316406 22.804688 1.25L21.675781.121094C21.515625-.0390625 21.273438-.0390625 21.113281.121094 20.953125.28125 20.953125.519531 21.113281.679688L21.636719 1.199219 17.953125 1.199219 18.476562.679688C18.636719.519531 18.636719.28125 18.476562.121094 18.316406-.0390625 18.074219-.0390625 17.914062.121094L16.785156 1.25C16.664062 1.316406 16.59375 1.441406 16.59375 1.601562 16.59375 1.757812 16.664062 1.882812 16.785156 1.949219L17.914062 3.078125C17.996094 3.160156 18.074219 3.199219 18.195312 3.199219 18.316406 3.199219 18.394531 3.160156 18.476562 3.078125 18.636719 2.921875 18.636719 2.679688 18.476562 2.519531L17.953125 2 21.636719 2 21.113281 2.519531C20.953125 2.679688 20.953125 2.921875 21.113281 3.078125 21.195312 3.160156 21.273438 3.199219 21.394531 3.199219 21.515625 3.199219 21.59375 3.160156 21.675781 3.078125L22.804688 1.949219C22.925781 1.882812 22.996094 1.757812 22.996094 1.601562zM15.59375 8.398438C15.234375 8.398438 14.875 8.519531 14.59375 8.761719L14.59375 2.800781C14.59375 1.839844 13.835938.800781 12.796875.800781 12.355469.800781 11.953125 1 11.675781 1.28125 11.394531.601562 10.753906 0 9.996094 0 9.554688 0 9.15625.199219 8.835938.519531 8.433594.878906 8.195312 1.441406 8.195312 1.960938 7.914062 1.761719 7.554688 1.601562 7.195312 1.601562 6.15625 1.601562 5.394531 2.640625 5.394531 3.601562L5.394531 10.480469C5.035156 9.71875 4.554688 9 4.074219 8.519531 3.433594 7.878906 2.15625 7.839844 1.433594 8.441406 1.234375 8.640625.554688 9.359375 1.476562 10.640625 2.316406 11.839844 2.996094 14.480469 2.996094 16 2.996094 19.199219 5.074219 20.640625 5.796875 21.039062L5.796875 23.601562C5.796875 23.839844 5.953125 24 6.195312 24 6.433594 24 6.59375 23.839844 6.59375 23.601562L6.59375 20.800781C6.59375 20.640625 6.515625 20.519531 6.355469 20.441406 6.234375 20.398438 3.792969 19.238281 3.792969 16 3.792969 14.519531 3.15625 11.601562 2.113281 10.160156 1.835938 9.800781 1.59375 9.320312 1.953125 9.039062 2.355469 8.71875 3.15625 8.71875 3.515625 9.078125 4.515625 10.078125 5.394531 12.199219 5.394531 13.199219 5.394531 13.441406 5.554688 13.601562 5.796875 13.601562 6.035156 13.601562 6.195312 13.441406 6.195312 13.199219L6.195312 3.601562C6.195312 3.039062 6.636719 2.398438 7.195312 2.398438 7.753906 2.398438 8.195312 3.039062 8.195312 3.601562L8.195312 10.800781C8.195312 11.039062 8.355469 11.199219 8.59375 11.199219 8.835938 11.199219 8.996094 11.039062 8.996094 10.800781L8.996094 2C8.996094 1.679688 9.15625 1.320312 9.394531 1.078125 9.554688.921875 9.792969.800781 9.996094.800781 10.554688.800781 10.996094 1.441406 10.996094 2L10.996094 11.199219C10.996094 11.441406 11.15625 11.601562 11.394531 11.601562 11.636719 11.601562 11.792969 11.441406 11.792969 11.199219L11.792969 2.800781C11.792969 2.238281 12.234375 1.601562 12.792969 1.601562 13.355469 1.601562 13.792969 2.238281 13.792969 2.800781L13.792969 10.320312C13.792969 10.359375 13.792969 10.359375 13.792969 10.398438L13.792969 12C13.792969 12.238281 13.953125 12.398438 14.195312 12.398438 14.433594 12.398438 14.59375 12.238281 14.59375 12L14.59375 10.359375C14.632812 9.800781 15.074219 9.199219 15.59375 9.199219 16.15625 9.199219 16.59375 9.839844 16.59375 10.398438L16.59375 16C16.59375 19.039062 16.59375 19.039062 15.476562 20.558594 15.394531 20.640625 15.394531 20.761719 15.394531 20.839844L15.394531 23.601562C15.394531 23.839844 15.554688 24 15.792969 24 16.035156 24 16.195312 23.839844 16.195312 23.601562L16.195312 20.921875C17.394531 19.320312 17.394531 19.121094 17.394531 16L17.394531 10.398438C17.394531 9.441406 16.636719 8.398438 15.59375 8.398438zM15.59375 8.398438"/>
    <path d="M11.394531 20.398438C11.636719 20.398438 11.796875 20.238281 11.796875 20 11.796875 19.761719 11.636719 19.601562 11.394531 19.601562L10.195312 19.601562C9.953125 19.601562 9.796875 19.761719 9.796875 20 9.796875 20.238281 9.953125 20.398438 10.195312 20.398438zM11.796875 21.199219L9.792969 21.199219C9.554688 21.199219 9.394531 21.359375 9.394531 21.601562 9.394531 21.839844 9.554688 22 9.792969 22L11.796875 22C12.035156 22 12.195312 21.839844 12.195312 21.601562 12.195312 21.359375 12.035156 21.199219 11.796875 21.199219zM11.796875 21.199219"/>
</svg>

<svg xmlns="http://www.w3.org/2000/svg" width="32" height="32" viewBox="0 0 24 24">
    <path d="M22.996 1.602c0-.16-.07-.286-.191-.352L21.675.121a.39.39 0 0 0-.562 0 .385.385 0 0 0 0 .559l.524.52h-3.684l.524-.52a.385.385 0 0 0 0-.559.39.39 0 0 0-.563 0L16.785 1.25c-.12.066-.191.191-.191.352 0 .156.07.28.191.347l1.13 1.13c.081.081.16.12.28.12.121 0 .2-.039.282-.12a.385.385 0 0 0 0-.56L17.953 2h3.684l-.524.52a.385.385 0 0 0 0 .558c.082.082.16.121.282.121.12 0 .199-.039.28-.12l1.13-1.13a.379.379 0 0 0 .191-.347zm0 0M15.594 8.398c-.36 0-.719.122-1 .364V2.8c0-.961-.758-2-1.797-2-.442 0-.844.199-1.121.48C11.395.601 10.754 0 9.996 0c-.441 0-.84.2-1.16.52-.402.359-.64.921-.64 1.44-.282-.198-.641-.358-1-.358-1.04 0-1.801 1.039-1.801 2v6.878c-.36-.761-.84-1.48-1.32-1.96-.641-.641-1.919-.68-2.641-.079-.2.2-.88.918.043 2.2.84 1.199 1.52 3.84 1.52 5.359 0 3.2 2.077 4.64 2.8 5.04v2.562c0 .238.156.398.398.398.239 0 .399-.16.399-.398V20.8c0-.16-.078-.281-.239-.36-.12-.043-2.562-1.203-2.562-4.441 0-1.48-.637-4.398-1.68-5.84-.277-.36-.52-.84-.16-1.12.402-.321 1.203-.321 1.563.038 1 1 1.879 3.121 1.879 4.121 0 .242.16.403.402.403.238 0 .398-.16.398-.403V3.602c0-.563.442-1.204 1-1.204.559 0 1 .641 1 1.204V10.8c0 .238.16.398.399.398.242 0 .402-.16.402-.398V2c0-.32.16-.68.399-.922.16-.156.398-.277.601-.277.559 0 1 .64 1 1.199v9.2c0 .241.16.402.399.402.242 0 .398-.16.398-.403V2.801c0-.563.441-1.2 1-1.2.562 0 1 .637 1 1.2V12c0 .238.16.398.402.398.239 0 .399-.16.399-.398v-1.64c.039-.56.48-1.16 1-1.16.562 0 1 .64 1 1.198V16c0 3.04 0 3.04-1.117 4.559-.082.082-.082.203-.082.28v2.763c0 .238.16.398.398.398.242 0 .402-.16.402-.398v-2.68c1.2-1.602 1.2-1.8 1.2-4.922v-5.602c0-.957-.758-2-1.801-2zm0 0"/>
    <path d="M11.395 20.398c.242 0 .402-.16.402-.398 0-.238-.16-.398-.402-.398h-1.2c-.242 0-.398.16-.398.398 0 .238.156.398.398.398zm0 0M11.797 21.2H9.793c-.238 0-.398.16-.398.402 0 .238.16.398.398.398h2.004c.238 0 .398-.16.398-.398 0-.243-.16-.403-.398-.403zm0 0"/>
</svg>
